X: 2956
T:James O'Byrnes
M:6/8
L:1/8
R:jig
K:FMaj
~F3 cFF|dFF cAG|~F3 cFF|dcA GEC|
!~F3 cFF|dFF cde|fed cAG|Add cAG:|
!:~f3 agf|~e3 gec|~f3 afd|dcA FAc|
!~f3 agf|~e3 gec|aff gfe|def dcA:|
